icons/x-o.svg

<svg width="24" height="24" viewBox="0 0 24 24" xmlns="http://www.w3.org/2000/svg">
    <path fill-rule="evenodd"
        d="M12.1766 13.2374L18.5406 19.6014L19.9548 18.1872L13.5908 11.8232L19.778 5.63603L18.3638 4.22182L12.1766 10.409L5.81268 4.04504L4.39847 5.45926L10.7624 11.8232L4.22168 18.364L5.63589 19.7782L12.1766 13.2374Z" />
</svg>

<svg xmlns="http://www.w3.org/2000/svg" width="24" height="24" viewBox="0 0 24 24">
    <path
        d="M12.177 13.237l6.364 6.364 1.414-1.414-6.364-6.364 6.187-6.187-1.414-1.414-6.187 6.187-6.364-6.364-1.415 1.414 6.364 6.364-6.54 6.541 1.414 1.414 6.54-6.54z" />
</svg>
